X:5010
T:Parson's Farewell
O:england
M:2/2
L:1/8
K:G
|:z2|g2e2e2fg|a2d2d3d|ef g2f2e2|d2B2B4|
g2e2e2fg|a2d2d3d|ef g2f2e2|d2B2B2:|
|:b2|g4g2b2|g4g2b2|ga b2ga b2|a2f2f4|
fg a2fg a2|g2e2efga|b2ag fe f2|e6:|
